packages/ffe-icons/icons/open/400/sm/flip_to_back.svg

<svg xmlns="http://www.w3.org/2000/svg" height="20" viewBox="0 -960 960 960" width="20"><path d="M216-144q-29.7 0-50.85-21.15Q144-186.3 144-216v-420q0-15.3 10.289-25.65 10.29-10.35 25.5-10.35Q195-672 205.5-661.65 216-651.3 216-636v420h420q15.3 0 25.65 10.289 10.35 10.29 10.35 25.5Q672-165 661.65-154.5 651.3-144 636-144H216Zm264.211-150Q465-294 454.5-304.289q-10.5-10.29-10.5-25.5Q444-345 454.289-355.5q10.29-10.5 25.5-10.5Q495-366 505.5-355.711q10.5 10.29 10.5 25.5Q516-315 505.711-304.5q-10.29 10.5-25.5 10.5Zm-150-450Q315-744 304.5-754.289q-10.5-10.29-10.5-25.5Q294-795 304.289-805.5q10.29-10.5 25.5-10.5Q345-816 355.5-805.711q10.5 10.29 10.5 25.5Q366-765 355.711-754.5q-10.29 10.5-25.5 10.5Zm150 0Q465-744 454.5-754.289q-10.5-10.29-10.5-25.5Q444-795 454.289-805.5q10.29-10.5 25.5-10.5Q495-816 505.5-805.711q10.5 10.29 10.5 25.5Q516-765 505.711-754.5q-10.29 10.5-25.5 10.5Zm150 0Q615-744 604.5-754.289q-10.5-10.29-10.5-25.5Q594-795 604.289-805.5q10.29-10.5 25.5-10.5Q645-816 655.5-805.711q10.5 10.29 10.5 25.5Q666-765 655.711-754.5q-10.29 10.5-25.5 10.5Zm150 0Q765-744 754.5-754.289q-10.5-10.29-10.5-25.5Q744-795 754.289-805.5q10.29-10.5 25.5-10.5Q795-816 805.5-805.711q10.5 10.29 10.5 25.5Q816-765 805.711-754.5q-10.29 10.5-25.5 10.5Zm-450 150Q315-594 304.5-604.289q-10.5-10.29-10.5-25.5Q294-645 304.289-655.5q10.29-10.5 25.5-10.5Q345-666 355.5-655.711q10.5 10.29 10.5 25.5Q366-615 355.711-604.5q-10.29 10.5-25.5 10.5Zm0 150Q315-444 304.5-454.289q-10.5-10.29-10.5-25.5Q294-495 304.289-505.5q10.29-10.5 25.5-10.5Q345-516 355.5-505.711q10.5 10.29 10.5 25.5Q366-465 355.711-454.5q-10.29 10.5-25.5 10.5Zm0 150Q315-294 304.5-304.289q-10.5-10.29-10.5-25.5Q294-345 304.289-355.5q10.29-10.5 25.5-10.5Q345-366 355.5-355.711q10.5 10.29 10.5 25.5Q366-315 355.711-304.5q-10.29 10.5-25.5 10.5Zm300 0Q615-294 604.5-304.289q-10.5-10.29-10.5-25.5Q594-345 604.289-355.5q10.29-10.5 25.5-10.5Q645-366 655.5-355.711q10.5 10.29 10.5 25.5Q666-315 655.711-304.5q-10.29 10.5-25.5 10.5Zm150-300Q765-594 754.5-604.289q-10.5-10.29-10.5-25.5Q744-645 754.289-655.5q10.29-10.5 25.5-10.5Q795-666 805.5-655.711q10.5 10.29 10.5 25.5Q816-615 805.711-604.5q-10.29 10.5-25.5 10.5Zm0 150Q765-444 754.5-454.289q-10.5-10.29-10.5-25.5Q744-495 754.289-505.5q10.29-10.5 25.5-10.5Q795-516 805.5-505.711q10.5 10.29 10.5 25.5Q816-465 805.711-454.5q-10.29 10.5-25.5 10.5Zm0 150Q765-294 754.5-304.289q-10.5-10.29-10.5-25.5Q744-345 754.289-355.5q10.29-10.5 25.5-10.5Q795-366 805.5-355.711q10.5 10.29 10.5 25.5Q816-315 805.711-304.5q-10.29 10.5-25.5 10.5Z"/></svg>

<svg xmlns="http://www.w3.org/2000/svg" height="20" viewBox="0 -960 960 960" width="20"><path d="M216-144q-29.7 0-50.85-21.15Q144-186.3 144-216v-420q0-15.3 10.29-25.65Q164.58-672 179.79-672t25.71 10.35Q216-651.3 216-636v420h420q15.3 0 25.65 10.29Q672-195.42 672-180.21t-10.35 25.71Q651.3-144 636-144H216Zm264.21-150q-15.21 0-25.71-10.29t-10.5-25.5q0-15.21 10.29-25.71t25.5-10.5q15.21 0 25.71 10.29t10.5 25.5q0 15.21-10.29 25.71t-25.5 10.5Zm-150-450q-15.21 0-25.71-10.29t-10.5-25.5q0-15.21 10.29-25.71t25.5-10.5q15.21 0 25.71 10.29t10.5 25.5q0 15.21-10.29 25.71t-25.5 10.5Zm150 0q-15.21 0-25.71-10.29t-10.5-25.5q0-15.21 10.29-25.71t25.5-10.5q15.21 0 25.71 10.29t10.5 25.5q0 15.21-10.29 25.71t-25.5 10.5Zm150 0q-15.21 0-25.71-10.29t-10.5-25.5q0-15.21 10.29-25.71t25.5-10.5q15.21 0 25.71 10.29t10.5 25.5q0 15.21-10.29 25.71t-25.5 10.5Zm150 0q-15.21 0-25.71-10.29t-10.5-25.5q0-15.21 10.29-25.71t25.5-10.5q15.21 0 25.71 10.29t10.5 25.5q0 15.21-10.29 25.71t-25.5 10.5Zm-450 150q-15.21 0-25.71-10.29t-10.5-25.5q0-15.21 10.29-25.71t25.5-10.5q15.21 0 25.71 10.29t10.5 25.5q0 15.21-10.29 25.71t-25.5 10.5Zm0 150q-15.21 0-25.71-10.29t-10.5-25.5q0-15.21 10.29-25.71t25.5-10.5q15.21 0 25.71 10.29t10.5 25.5q0 15.21-10.29 25.71t-25.5 10.5Zm0 150q-15.21 0-25.71-10.29t-10.5-25.5q0-15.21 10.29-25.71t25.5-10.5q15.21 0 25.71 10.29t10.5 25.5q0 15.21-10.29 25.71t-25.5 10.5Zm300 0q-15.21 0-25.71-10.29t-10.5-25.5q0-15.21 10.29-25.71t25.5-10.5q15.21 0 25.71 10.29t10.5 25.5q0 15.21-10.29 25.71t-25.5 10.5Zm150-300q-15.21 0-25.71-10.29t-10.5-25.5q0-15.21 10.29-25.71t25.5-10.5q15.21 0 25.71 10.29t10.5 25.5q0 15.21-10.29 25.71t-25.5 10.5Zm0 150q-15.21 0-25.71-10.29t-10.5-25.5q0-15.21 10.29-25.71t25.5-10.5q15.21 0 25.71 10.29t10.5 25.5q0 15.21-10.29 25.71t-25.5 10.5Zm0 150q-15.21 0-25.71-10.29t-10.5-25.5q0-15.21 10.29-25.71t25.5-10.5q15.21 0 25.71 10.29t10.5 25.5q0 15.21-10.29 25.71t-25.5 10.5Z"/></svg>
